frontend/src/assets/icons/calendar.svg

<?xml version="1.0" encoding="utf-8"?><!-- Uploaded to: SVG Repo, www.svgrepo.com, Generator: SVG Repo Mixer Tools -->
<svg fill="current" width="current" height="current" viewBox="0 0 56 56" xmlns="http://www.w3.org/2000/svg"><path d="M 11.9923 49.5742 L 44.0079 49.5742 C 48.9066 49.5742 51.3671 47.1367 51.3671 42.3086 L 51.3671 13.6914 C 51.3671 8.8633 48.9066 6.4258 44.0079 6.4258 L 11.9923 6.4258 C 7.1173 6.4258 4.6329 8.8398 4.6329 13.6914 L 4.6329 42.3086 C 4.6329 47.1602 7.1173 49.5742 11.9923 49.5742 Z M 11.6642 45.8008 C 9.5782 45.8008 8.4064 44.6992 8.4064 42.5195 L 8.4064 20.4180 C 8.4064 18.2617 9.5782 17.1367 11.6642 17.1367 L 44.3126 17.1367 C 46.3985 17.1367 47.5938 18.2617 47.5938 20.4180 L 47.5938 42.5195 C 47.5938 44.6992 46.3985 45.8008 44.3126 45.8008 Z M 23.4064 25.5508 L 24.7892 25.5508 C 25.6095 25.5508 25.8907 25.3164 25.8907 24.4961 L 25.8907 23.1133 C 25.8907 22.2930 25.6095 22.0352 24.7892 22.0352 L 23.4064 22.0352 C 22.5860 22.0352 22.3282 22.2930 22.3282 23.1133 L 22.3282 24.4961 C 22.3282 25.3164 22.5860 25.5508 23.4064 25.5508 Z M 31.2111 25.5508 L 32.5704 25.5508 C 33.4142 25.5508 33.6720 25.3164 33.6720 24.4961 L 33.6720 23.1133 C 33.6720 22.2930 33.4142 22.0352 32.5704 22.0352 L 31.2111 22.0352 C 30.3907 22.0352 30.1095 22.2930 30.1095 23.1133 L 30.1095 24.4961 C 30.1095 25.3164 30.3907 25.5508 31.2111 25.5508 Z M 38.9923 25.5508 L 40.3751 25.5508 C 41.1954 25.5508 41.4767 25.3164 41.4767 24.4961 L 41.4767 23.1133 C 41.4767 22.2930 41.1954 22.0352 40.3751 22.0352 L 38.9923 22.0352 C 38.1720 22.0352 37.8907 22.2930 37.8907 23.1133 L 37.8907 24.4961 C 37.8907 25.3164 38.1720 25.5508 38.9923 25.5508 Z M 15.6251 33.2149 L 17.0079 33.2149 C 17.8282 33.2149 18.1095 32.9805 18.1095 32.1602 L 18.1095 30.7774 C 18.1095 29.9571 17.8282 29.7227 17.0079 29.7227 L 15.6251 29.7227 C 14.8048 29.7227 14.5235 29.9571 14.5235 30.7774 L 14.5235 32.1602 C 14.5235 32.9805 14.8048 33.2149 15.6251 33.2149 Z M 23.4064 33.2149 L 24.7892 33.2149 C 25.6095 33.2149 25.8907 32.9805 25.8907 32.1602 L 25.8907 30.7774 C 25.8907 29.9571 25.6095 29.7227 24.7892 29.7227 L 23.4064 29.7227 C 22.5860 29.7227 22.3282 29.9571 22.3282 30.7774 L 22.3282 32.1602 C 22.3282 32.9805 22.5860 33.2149 23.4064 33.2149 Z M 31.2111 33.2149 L 32.5704 33.2149 C 33.4142 33.2149 33.6720 32.9805 33.6720 32.1602 L 33.6720 30.7774 C 33.6720 29.9571 33.4142 29.7227 32.5704 29.7227 L 31.2111 29.7227 C 30.3907 29.7227 30.1095 29.9571 30.1095 30.7774 L 30.1095 32.1602 C 30.1095 32.9805 30.3907 33.2149 31.2111 33.2149 Z M 38.9923 33.2149 L 40.3751 33.2149 C 41.1954 33.2149 41.4767 32.9805 41.4767 32.1602 L 41.4767 30.7774 C 41.4767 29.9571 41.1954 29.7227 40.3751 29.7227 L 38.9923 29.7227 C 38.1720 29.7227 37.8907 29.9571 37.8907 30.7774 L 37.8907 32.1602 C 37.8907 32.9805 38.1720 33.2149 38.9923 33.2149 Z M 15.6251 40.9024 L 17.0079 40.9024 C 17.8282 40.9024 18.1095 40.6445 18.1095 39.8242 L 18.1095 38.4414 C 18.1095 37.6211 17.8282 37.3867 17.0079 37.3867 L 15.6251 37.3867 C 14.8048 37.3867 14.5235 37.6211 14.5235 38.4414 L 14.5235 39.8242 C 14.5235 40.6445 14.8048 40.9024 15.6251 40.9024 Z M 23.4064 40.9024 L 24.7892 40.9024 C 25.6095 40.9024 25.8907 40.6445 25.8907 39.8242 L 25.8907 38.4414 C 25.8907 37.6211 25.6095 37.3867 24.7892 37.3867 L 23.4064 37.3867 C 22.5860 37.3867 22.3282 37.6211 22.3282 38.4414 L 22.3282 39.8242 C 22.3282 40.6445 22.5860 40.9024 23.4064 40.9024 Z M 31.2111 40.9024 L 32.5704 40.9024 C 33.4142 40.9024 33.6720 40.6445 33.6720 39.8242 L 33.6720 38.4414 C 33.6720 37.6211 33.4142 37.3867 32.5704 37.3867 L 31.2111 37.3867 C 30.3907 37.3867 30.1095 37.6211 30.1095 38.4414 L 30.1095 39.8242 C 30.1095 40.6445 30.3907 40.9024 31.2111 40.9024 Z"/></svg>

<svg fill="current" width="current" height="current" viewBox="0 0 56 56" xmlns="http://www.w3.org/2000/svg"><path d="M11.992 49.574h32.016c4.899 0 7.36-2.437 7.36-7.265V13.69c0-4.828-2.461-7.265-7.36-7.265H11.992c-4.875 0-7.36 2.414-7.36 7.265V42.31c0 4.851 2.485 7.265 7.36 7.265zm-.328-3.773c-2.086 0-3.258-1.102-3.258-3.282V20.419c0-2.156 1.172-3.281 3.258-3.281h32.649c2.085 0 3.28 1.125 3.28 3.281V42.52c0 2.18-1.195 3.28-3.28 3.28zm11.742-20.25h1.383c.82 0 1.102-.235 1.102-1.055v-1.383c0-.82-.281-1.078-1.102-1.078h-1.383c-.82 0-1.078.258-1.078 1.078v1.383c0 .82.258 1.055 1.078 1.055zm7.805 0h1.36c.843 0 1.101-.235 1.101-1.055v-1.383c0-.82-.258-1.078-1.102-1.078h-1.359c-.82 0-1.101.258-1.101 1.078v1.383c0 .82.28 1.055 1.101 1.055zm7.781 0h1.383c.82 0 1.102-.235 1.102-1.055v-1.383c0-.82-.282-1.078-1.102-1.078h-1.383c-.82 0-1.101.258-1.101 1.078v1.383c0 .82.281 1.055 1.101 1.055zm-23.367 7.664h1.383c.82 0 1.102-.235 1.102-1.055v-1.383c0-.82-.282-1.054-1.102-1.054h-1.383c-.82 0-1.101.234-1.101 1.054v1.383c0 .82.28 1.055 1.101 1.055zm7.781 0h1.383c.82 0 1.102-.235 1.102-1.055v-1.383c0-.82-.281-1.054-1.102-1.054h-1.383c-.82 0-1.078.234-1.078 1.054v1.383c0 .82.258 1.055 1.078 1.055zm7.805 0h1.36c.843 0 1.101-.235 1.101-1.055v-1.383c0-.82-.258-1.054-1.102-1.054h-1.359c-.82 0-1.101.234-1.101 1.054v1.383c0 .82.28 1.055 1.101 1.055zm7.781 0h1.383c.82 0 1.102-.235 1.102-1.055v-1.383c0-.82-.282-1.054-1.102-1.054h-1.383c-.82 0-1.101.234-1.101 1.054v1.383c0 .82.281 1.055 1.101 1.055zm-23.367 7.687h1.383c.82 0 1.102-.258 1.102-1.078v-1.383c0-.82-.282-1.054-1.102-1.054h-1.383c-.82 0-1.101.234-1.101 1.054v1.383c0 .82.28 1.078 1.101 1.078zm7.781 0h1.383c.82 0 1.102-.258 1.102-1.078v-1.383c0-.82-.281-1.054-1.102-1.054h-1.383c-.82 0-1.078.234-1.078 1.054v1.383c0 .82.258 1.078 1.078 1.078zm7.805 0h1.36c.843 0 1.101-.258 1.101-1.078v-1.383c0-.82-.258-1.054-1.102-1.054h-1.359c-.82 0-1.101.234-1.101 1.054v1.383c0 .82.28 1.078 1.101 1.078z"/></svg>
